X:327
T:North Carolina Breakdown
C:
N:Transcribed by Tristan Scroggins Based on Michael Cleveland's version from "Flame Keeper"
R:bluegrass
L:1/8
Q:1/4=290
M:4/4
K:G
DF | GF GD EG ED | GF GA Bd ef | gf gf ed ef | ge dB AG ED | GB AG EB, DF | GF GA Bd ef | 
gb ge de ge | dB AF G2 DF | GB AG EB, DF | GF GA Bd ef | g2 fg ed ef | ge dB AG ED | 
GB AG EB, DF | GF GA Bd ef | gb ge de ge | dB AF G4 | [E3B,3][EB,] [E2B,2] [EG,][EA,] | 
[EB,][EA,] [EB,][EC] [EB,][EA,] [E2G,2] | [E/B,/][G/D/][GD] [GD][GD] [G3D3][GD] | 
[GD][GD] [GD][GD] [GD][EB,] [D2G,2] | [E3B,3][EB,] [E2B,2] ga | ba gb ag ed | 
gb ge de ge | dB AF G4 | [E3B,3][EB,] [E2B,2] [EG,][EA,] | [EB,][EA,] [EB,][EC] [EB,][EA,] [E2G,2] | 
[E/B,/][G/D/][GD] [GD][GD] [G3D3][GD] | [GD][GD] [GD][GD] [GD][EB,] [D2G,2] | 
[E3B,3][EB,] [E2B,2] ga | ba gb ag ed | gb ge de ge | dB AF G4 | 


